svg/part/vest_line.svg

<?xml version="1.0" encoding="UTF-8"?>
<svg width="24px" height="24px" viewBox="0 0 24 24" version="1.1" xmlns="http://www.w3.org/2000/svg" xmlns:xlink="http://www.w3.org/1999/xlink">
    <title>vest_line</title>
    <g id="Icon" stroke="none" stroke-width="1" fill="none" fill-rule="evenodd">
        <g id="Part" transform="translate(-816.000000, -96.000000)">
            <g id="vest_line" transform="translate(816.000000, 96.000000)">
                <path d="M24,0 L24,24 L0,24 L0,0 L24,0 Z M12.5934901,23.257841 L12.5819402,23.2595131 L12.5108777,23.2950439 L12.4918791,23.2987469 L12.4918791,23.2987469 L12.4767152,23.2950439 L12.4056548,23.2595131 C12.3958229,23.2563662 12.3870493,23.2590235 12.3821421,23.2649074 L12.3780323,23.275831 L12.360941,23.7031097 L12.3658947,23.7234994 L12.3769048,23.7357139 L12.4804777,23.8096931 L12.4953491,23.8136134 L12.4953491,23.8136134 L12.5071152,23.8096931 L12.6106902,23.7357139 L12.6232938,23.7196733 L12.6232938,23.7196733 L12.6266527,23.7031097 L12.609561,23.275831 C12.6075724,23.2657013 12.6010112,23.2592993 12.5934901,23.257841 L12.5934901,23.257841 Z M12.8583906,23.1452862 L12.8445485,23.1473072 L12.6598443,23.2396597 L12.6498822,23.2499052 L12.6498822,23.2499052 L12.6471943,23.2611114 L12.6650943,23.6906389 L12.6699349,23.7034178 L12.6699349,23.7034178 L12.678386,23.7104931 L12.8793402,23.8032389 C12.8914285,23.8068999 12.9022333,23.8029875 12.9078286,23.7952264 L12.9118235,23.7811639 L12.8776777,23.1665331 C12.8752882,23.1545897 12.8674102,23.1470016 12.8583906,23.1452862 L12.8583906,23.1452862 Z M12.1430473,23.1473072 C12.1332178,23.1423925 12.1221763,23.1452606 12.1156365,23.1525954 L12.1099173,23.1665331 L12.0757714,23.7811639 C12.0751323,23.7926639 12.0828099,23.8018602 12.0926481,23.8045676 L12.108256,23.8032389 L12.3092106,23.7104931 L12.3186497,23.7024347 L12.3186497,23.7024347 L12.3225043,23.6906389 L12.340401,23.2611114 L12.337245,23.2485176 L12.337245,23.2485176 L12.3277531,23.2396597 L12.1430473,23.1473072 Z" id="MingCute" fill-rule="nonzero"></path>
                <path d="M5.96291,4.91892 C6.04545,3.90189 6.87559,3 8,3 L16,3 C17.1244,3 17.9546,3.90189 18.0371,4.91892 C18.2702,7.79176 19.5492,9.83243 20.2606,10.7616 C20.6849,11.3159 21,12.0312 21,12.8284 L21,18 C21,19.6568 19.6569,21 18,21 L12.0052,21 C12.0035,21 12.0017,21 12,21 C11.9983,21 11.9965,21 11.9948,21 L6,21 C4.34315,21 3,19.6568 3,18 L3,12.8284 C3,12.0312 3.31514,11.3159 3.73943,10.7616 C4.45081,9.83243 5.72977,7.79176 5.96291,4.91892 Z M13,19 L18,19 C18.5523,19 19,18.5523 19,18 L19,12.8284 C19,12.5648 18.8931,12.2656 18.6725,11.9774 C17.8211,10.8653 16.3183,8.46545 16.0436,5.0807 C16.0403,5.03906 15.9549,4.95713 15.9497,5.02055 C15.8176,6.60569 15.5105,8.36102 14.5344,9.6625 C14.1541,10.1696 13.6463,10.6064 13,10.8334 L13,19 Z M11,10.8334 L11,19 L6,19 C5.44772,19 5,18.5523 5,18 L5,12.8284 C5,12.5648 5.10689,12.2656 5.32748,11.9774 C6.17888,10.8653 7.68167,8.46545 7.95636,5.0807 C7.96142,5.01831 7.99319,5 8.04863,5 C8.18201,6.61292 8.47022,8.33529 9.46562,9.6625 C9.84593,10.1696 10.3537,10.6064 11,10.8334 Z M12,9 C12.3571,9 12.649,8.84302 12.9344,8.4625 C13.6482,7.51076 13.8358,6.15285 13.9437,5 L10.0563,5 C10.1642,6.15285 10.3518,7.51076 11.0656,8.4625 C11.351,8.84302 11.6429,9 12,9 Z" id="形状" fill="#09244B"></path>
            </g>
        </g>
    </g>
</svg>

<svg xmlns="http://www.w3.org/2000/svg" width="24" height="24"><g fill="none" fill-rule="evenodd"><path d="M24 0v24H0V0h24ZM12.593 23.258l-.011.002-.071.035-.02.004-.014-.004-.071-.035c-.01-.004-.019-.001-.024.005l-.004.01-.017.428.005.02.01.013.104.074.015.004.012-.004.104-.074.012-.016.004-.017-.017-.427c-.002-.01-.009-.017-.017-.018Zm.265-.113-.013.002-.185.093-.01.01-.003.011.018.43.005.012.008.007.201.093c.012.004.023 0 .029-.008l.004-.014-.034-.614c-.003-.012-.01-.02-.02-.022Zm-.715.002a.023.023 0 0 0-.027.006l-.006.014-.034.614c0 .012.007.02.017.024l.015-.002.201-.093.01-.008.004-.011.017-.43-.003-.012-.01-.01-.184-.092Z"/><path fill="#09244B" d="M5.963 4.919C6.045 3.902 6.876 3 8 3h8c1.124 0 1.955.902 2.037 1.919a11.228 11.228 0 0 0 2.224 5.843c.424.554.739 1.27.739 2.066V18a3 3 0 0 1-3 3H6a3 3 0 0 1-3-3v-5.172c0-.797.315-1.512.74-2.066.71-.93 1.99-2.97 2.223-5.843ZM13 19h5a1 1 0 0 0 1-1v-5.172c0-.263-.107-.562-.328-.85a13.228 13.228 0 0 1-2.628-6.897c-.004-.042-.09-.124-.094-.06-.132 1.585-.44 3.34-1.416 4.642-.38.507-.888.943-1.534 1.17V19Zm-2-8.167V19H6a1 1 0 0 1-1-1v-5.172c0-.263.107-.562.327-.85a13.228 13.228 0 0 0 2.63-6.897C7.96 5.018 7.992 5 8.048 5c.133 1.613.421 3.335 1.417 4.663.38.507.888.943 1.534 1.17ZM12 9c.357 0 .649-.157.934-.537.714-.952.902-2.31 1.01-3.463h-3.888c.108 1.153.296 2.51 1.01 3.463.285.38.577.537.934.537Z"/></g></svg>
